; G-Code generated by Simplify3D(R) Version 4.0.1
; Dec 6, 2017 at 8:53:58 PM
; Settings Summary
;   processName,PLA
;   applyToModels,front-wheel-mount
;   profileName,LulzBot TAZ 6 Single (modified)
;   profileVersion,2016-06-08 08:00:00
;   baseProfile,
;   printMaterial,PLA
;   printQuality,Medium
;   printExtruders,
;   extruderName,Primary Extruder
;   extruderToolheadNumber,0
;   extruderDiameter,0.5
;   extruderAutoWidth,0
;   extruderWidth,0.5
;   extrusionMultiplier,0.9
;   extruderUseRetract,1
;   extruderRetractionDistance,1.5
;   extruderExtraRestartDistance,0
;   extruderRetractionZLift,0
;   extruderRetractionSpeed,1800
;   extruderUseCoasting,0
;   extruderCoastingDistance,0.2
;   extruderUseWipe,0
;   extruderWipeDistance,5
;   primaryExtruder,0
;   layerHeight,0.2
;   topSolidLayers,5
;   bottomSolidLayers,3
;   perimeterOutlines,2
;   printPerimetersInsideOut,1
;   startPointOption,2
;   startPointOriginX,0
;   startPointOriginY,0
;   sequentialIslands,0
;   spiralVaseMode,0
;   firstLayerHeightPercentage,90
;   firstLayerWidthPercentage,100
;   firstLayerUnderspeed,0.5
;   useRaft,0
;   raftExtruder,0
;   raftTopLayers,3
;   raftBaseLayers,2
;   raftOffset,3
;   raftSeparationDistance,0.14
;   raftTopInfill,100
;   aboveRaftSpeedMultiplier,0.3
;   useSkirt,1
;   skirtExtruder,0
;   skirtLayers,1
;   skirtOutlines,2
;   skirtOffset,6
;   usePrimePillar,0
;   primePillarExtruder,999
;   primePillarWidth,12
;   primePillarLocation,7
;   primePillarSpeedMultiplier,1
;   useOozeShield,0
;   oozeShieldExtruder,999
;   oozeShieldOffset,2
;   oozeShieldOutlines,1
;   oozeShieldSidewallShape,1
;   oozeShieldSidewallAngle,30
;   oozeShieldSpeedMultiplier,1
;   infillExtruder,0
;   internalInfillPattern,Full Honeycomb
;   externalInfillPattern,Rectilinear
;   infillPercentage,39
;   outlineOverlapPercentage,15
;   infillExtrusionWidthPercentage,200
;   minInfillLength,5
;   infillLayerInterval,1
;   internalInfillAngles,0,120,-120
;   overlapInternalInfillAngles,0
;   externalInfillAngles,45,-45
;   generateSupport,0
;   supportExtruder,0
;   supportInfillPercentage,30
;   supportExtraInflation,0
;   supportBaseLayers,0
;   denseSupportExtruder,0
;   denseSupportLayers,0
;   denseSupportInfillPercentage,70
;   supportLayerInterval,1
;   supportHorizontalPartOffset,0.3
;   supportUpperSeparationLayers,1
;   supportLowerSeparationLayers,1
;   supportType,0
;   supportGridSpacing,4
;   maxOverhangAngle,45
;   supportAngles,0
;   temperatureName,Primary Extruder,Heated Bed
;   temperatureNumber,0,0
;   temperatureSetpointCount,1,1
;   temperatureSetpointLayers,1,1
;   temperatureSetpointTemperatures,205,60
;   temperatureStabilizeAtStartup,1,1
;   temperatureHeatedBed,0,1
;   temperatureRelayBetweenLayers,0,0
;   temperatureRelayBetweenLoops,0,0
;   fanLayers,1,2
;   fanSpeeds,0,100
;   blipFanToFullPower,1
;   adjustSpeedForCooling,1
;   minSpeedLayerTime,15
;   minCoolingSpeedSlowdown,20
;   increaseFanForCooling,0
;   minFanLayerTime,45
;   maxCoolingFanSpeed,100
;   increaseFanForBridging,0
;   bridgingFanSpeed,100
;   use5D,1
;   relativeEdistances,0
;   allowEaxisZeroing,1
;   independentExtruderAxes,0
;   includeM10123,0
;   stickySupport,1
;   applyToolheadOffsets,0
;   gcodeXoffset,0
;   gcodeYoffset,0
;   gcodeZoffset,0
;   overrideMachineDefinition,1
;   machineTypeOverride,0
;   strokeXoverride,280
;   strokeYoverride,280
;   strokeZoverride,250
;   originOffsetXoverride,0
;   originOffsetYoverride,0
;   originOffsetZoverride,0
;   homeXdirOverride,-1
;   homeYdirOverride,-1
;   homeZdirOverride,-1
;   flipXoverride,1
;   flipYoverride,-1
;   flipZoverride,1
;   toolheadOffsets,0,0|0,0|0,0|0,0|0,0|0,0
;   overrideFirmwareConfiguration,1
;   firmwareTypeOverride,RepRap (Marlin/Repetier/Sprinter)
;   GPXconfigOverride,r2
;   baudRateOverride,250000
;   overridePrinterModels,1
;   printerModelsOverride,LulzBot_TAZ6.stl
;   startingGcode,G26 ; clear probe fail condition,M140 S[bed0_temperature] ; start heating bed,M104 S170 ; start heating extruder,G28 XY ; home X and Y,G1 X-19 Y258 F1000 ; move to safe homing position,M109 S170 ; soften filament for Z homing,G28 Z ; home Z,G92 E0 ; zero extruder,G1 E-12 F100 ; retract 12mm filament,G1 X-15 Y100 F3000 ; move above wiper pad,G1 Z1 ; push nozzle into wiper,G1 X-17 Y95 F1000 ; slow wipe,G1 X-17 Y90 F1000 ; slow wipe,G1 X-17 Y85 F1000 ; slow wipe,G1 X-15 Y90 F1000 ; slow wipe,G1 X-17 Y80 F1000 ; slow wipe,G1 X-15 Y95 F1000 ; slow wipe,G1 X-17 Y75 F2000 ; fast wipe,G1 X-15 Y65 F2000 ; fast wipe,G1 X-17 Y70 F2000 ; fast wipe,G1 X-15 Y60 F2000 ; fast wipe,G1 X-17 Y55 F2000 ; fast wipe,G1 X-15 Y50 F2000 ; fast wipe,G1 X-17 Y40 F2000 ; fast wipe,G1 X-15 Y45 F2000 ; fast wipe,G1 X-17 Y35 F2000 ; fast wipe,G1 X-15 Y40 F2000 ; fast wipe,G1 X-17 Y70 F2000 ; fast wipe,G1 X-15 Y30 Z2 F2000 ; fast wipe,G1 X-17 Y35 F2000 ; fast wipe,G1 X-15 Y25 F2000 ; fast wipe,G1 X-17 Y30 F2000 ; fast wipe,G1 X-15 Y25 Z1.5 F1000 ; slow wipe,G1 X-17 Y23 F1000 ; slow wipe,G1 Z10 ; raise extruder,G1 X-9 Y-9 ; move above first probe point,M204 S100 ; set accel for probing,G29 ; probe sequence (for auto-leveling),M204 S500 ; set accel back to normal,G1 X0 Y0 Z15 F5000 ; get out of the way,M400 ; clear buffer,M117 Heating...,M104 S[extruder0_temperature] ; start heating extruder,M190 S[bed0_temperature] ; stabilize bed,M109 S[extruder0_temperature] ; stabilize extruder,G1 Z2 E0 F75 ; extrude filament back into nozzle,M117 TAZ Printing...
;   layerChangeGcode,
;   retractionGcode,
;   toolChangeGcode,
;   endingGcode,M400 ; wait for moves to finish,M104 S0 ; turn off extruder,M107 ; turn off fan,G1 Y0 F3000 ; move to cooling position,M117 Cooling please wait,M190 S50 ; cool down bed,G1 Y280 F3000 ; present finished print,M140 S0 ; turn off bed,M84 ; disable motors,M117 Print complete
;   exportFileFormat,gcode
;   celebration,0
;   celebrationSong,Random Song
;   postProcessing,
;   defaultSpeed,3600
;   outlineUnderspeed,0.5
;   solidInfillUnderspeed,0.8
;   supportUnderspeed,0.8
;   rapidXYspeed,4800
;   rapidZspeed,1000
;   minBridgingArea,50
;   bridgingExtraInflation,0
;   bridgingExtrusionMultiplier,1
;   bridgingSpeedMultiplier,1
;   useFixedBridgingAngle,0
;   fixedBridgingAngle,0
;   applyBridgingToPerimeters,0
;   filamentDiameters,2.85|2.85|2.85|2.85|2.85|2.85
;   filamentPricesPerKg,46|46|46|46|46|46
;   filamentDensities,1.25|1.25|1.25|1.25|1.25|1.25
;   useMinPrintHeight,0
;   minPrintHeight,0
;   useMaxPrintHeight,0
;   maxPrintHeight,0
;   useDiaphragm,0
;   diaphragmLayerInterval,20
;   robustSlicing,1
;   mergeAllIntoSolid,0
;   onlyRetractWhenCrossingOutline,1
;   retractBetweenLayers,1
;   useRetractionMinTravel,0
;   retractionMinTravel,3
;   retractWhileWiping,0
;   onlyWipeOutlines,1
;   avoidCrossingOutline,0
;   maxMovementDetourFactor,3
;   toolChangeRetractionDistance,12
;   toolChangeExtraRestartDistance,-0.5
;   toolChangeRetractionSpeed,600
;   externalThinWallType,0
;   internalThinWallType,2
;   thinWallAllowedOverlapPercentage,10
;   singleExtrusionMinLength,1
;   singleExtrusionMinPrintingWidthPercentage,50
;   singleExtrusionMaxPrintingWidthPercentage,200
;   singleExtrusionEndpointExtension,0.2
;   horizontalSizeCompensation,0
G90
M82
M106 S255
G4 P500
M106 S0
G26 ; clear probe fail condition
M140 S60 ; start heating bed
M104 S170 ; start heating extruder
G28 XY ; home X and Y
G1 X-19 Y258 F1000 ; move to safe homing position
M109 S170 ; soften filament for Z homing
G28 Z ; home Z
G92 E0 ; zero extruder
G1 E-12 F100 ; retract 12mm filament
G1 X-15 Y100 F3000 ; move above wiper pad
G1 Z1 ; push nozzle into wiper
G1 X-17 Y95 F1000 ; slow wipe
G1 X-17 Y90 F1000 ; slow wipe
G1 X-17 Y85 F1000 ; slow wipe
G1 X-15 Y90 F1000 ; slow wipe
G1 X-17 Y80 F1000 ; slow wipe
G1 X-15 Y95 F1000 ; slow wipe
G1 X-17 Y75 F2000 ; fast wipe
G1 X-15 Y65 F2000 ; fast wipe
G1 X-17 Y70 F2000 ; fast wipe
G1 X-15 Y60 F2000 ; fast wipe
G1 X-17 Y55 F2000 ; fast wipe
G1 X-15 Y50 F2000 ; fast wipe
G1 X-17 Y40 F2000 ; fast wipe
G1 X-15 Y45 F2000 ; fast wipe
G1 X-17 Y35 F2000 ; fast wipe
G1 X-15 Y40 F2000 ; fast wipe
G1 X-17 Y70 F2000 ; fast wipe
G1 X-15 Y30 Z2 F2000 ; fast wipe
G1 X-17 Y35 F2000 ; fast wipe
G1 X-15 Y25 F2000 ; fast wipe
G1 X-17 Y30 F2000 ; fast wipe
G1 X-15 Y25 Z1.5 F1000 ; slow wipe
G1 X-17 Y23 F1000 ; slow wipe
G1 Z10 ; raise extruder
G1 X-9 Y-9 ; move above first probe point
M204 S100 ; set accel for probing
G29 ; probe sequence (for auto-leveling)
M204 S500 ; set accel back to normal
G1 X0 Y0 Z15 F5000 ; get out of the way
M400 ; clear buffer
M117 Heating...
M104 S205 ; start heating extruder
M190 S60 ; stabilize bed
M109 S205 ; stabilize extruder
G1 Z2 E0 F75 ; extrude filament back into nozzle
M117 TAZ Printing...
G92 E0
G1 E-1.5000 F1800
G1 Z0.180 F1000
; process PLA
; layer 1, Z = 0.180
T0
; tool H0.200 W0.500
; skirt
G1 X123.345 Y118.001 F4800
G1 E0.0000 F540
G92 E0
G1 X127.070 Y114.276 E0.0743 F1800
G1 X127.346 Y114.161 E0.0785
G1 X131.354 Y114.161 E0.1351
G1 X131.396 Y114.164 E0.1357
G1 X132.100 Y114.242 E0.1457
G1 X132.141 Y114.249 E0.1463
G1 X133.417 Y114.537 E0.1647
G1 X133.497 Y114.565 E0.1659
G1 X134.789 Y115.182 E0.1861
G1 X134.860 Y115.227 E0.1873
G1 X136.178 Y116.270 E0.2110
G1 X136.233 Y116.324 E0.2121
G1 X137.078 Y117.338 E0.2307
G1 X137.121 Y117.402 E0.2318
G1 X137.707 Y118.505 E0.2494
G1 X137.728 Y118.551 E0.2501
G1 X138.027 Y119.363 E0.2623
G1 X138.042 Y119.412 E0.2631
G1 X138.256 Y120.382 E0.2771
G1 X138.263 Y120.422 E0.2777
G1 X138.338 Y121.113 E0.2875
G1 X138.340 Y121.153 E0.2880
G1 X138.339 Y146.913 E0.6514
G1 X141.661 Y146.912 E0.6983
G1 X141.660 Y121.153 E1.0617
G1 X141.662 Y121.113 E1.0623
G1 X141.737 Y120.423 E1.0721
G1 X141.744 Y120.383 E1.0727
G1 X141.958 Y119.412 E1.0867
G1 X141.972 Y119.363 E1.0874
G1 X142.272 Y118.551 E1.0996
G1 X142.293 Y118.505 E1.1003
G1 X142.879 Y117.402 E1.1180
G1 X142.922 Y117.337 E1.1190
G1 X143.767 Y116.324 E1.1377
G1 X143.823 Y116.270 E1.1388
G1 X145.140 Y115.227 E1.1625
G1 X145.211 Y115.182 E1.1636
G1 X146.504 Y114.565 E1.1839
G1 X146.583 Y114.537 E1.1850
G1 X147.859 Y114.249 E1.2035
G1 X147.900 Y114.242 E1.2041
G1 X148.604 Y114.164 E1.2141
G1 X148.646 Y114.161 E1.2147
G1 X152.654 Y114.161 E1.2712
G1 X152.930 Y114.276 E1.2754
G1 X156.655 Y118.001 E1.3498
G1 X156.770 Y118.277 E1.3540
G1 X156.770 Y163.134 E1.9868
G1 X156.655 Y163.410 E1.9910
G1 X152.930 Y167.136 E2.0654
G1 X152.654 Y167.250 E2.0696
G1 X127.346 Y167.250 E2.4266
G1 X127.070 Y167.136 E2.4308
G1 X123.345 Y163.410 E2.5051
G1 X123.230 Y163.134 E2.5094
G1 X123.230 Y118.277 E3.1422
G1 X123.345 Y118.001 E3.1464
G1 X123.769 Y118.284 F4800
G92 E0
G1 X127.354 Y114.699 E0.0715 F1800
G1 X127.445 Y114.661 E0.0729
G1 X131.340 Y114.661 E0.1279
G1 X131.354 Y114.662 E0.1281
G1 X132.031 Y114.738 E0.1377
G1 X132.045 Y114.740 E0.1379
G1 X133.280 Y115.019 E0.1557
G1 X133.306 Y115.028 E0.1561
G1 X134.548 Y115.621 E0.1756
G1 X134.572 Y115.636 E0.1759
G1 X135.847 Y116.646 E0.1989
G1 X135.866 Y116.664 E0.1993
G1 X136.678 Y117.638 E0.2171
G1 X136.692 Y117.659 E0.2175
G1 X137.258 Y118.724 E0.2345
G1 X137.265 Y118.740 E0.2348
G1 X137.552 Y119.520 E0.2465
G1 X137.557 Y119.536 E0.2467
G1 X137.765 Y120.477 E0.2603
G1 X137.767 Y120.490 E0.2605
G1 X137.840 Y121.153 E0.2699
G1 X137.840 Y121.167 E0.2701
G1 X137.839 Y147.413 E0.6404
G1 X142.161 Y147.412 E0.7014
G1 X142.160 Y121.167 E1.0716
G1 X142.160 Y121.153 E1.0718
G1 X142.233 Y120.491 E1.0812
G1 X142.235 Y120.477 E1.0814
G1 X142.443 Y119.537 E1.0950
G1 X142.447 Y119.520 E1.0953
G1 X142.735 Y118.740 E1.1070
G1 X142.742 Y118.724 E1.1072
G1 X143.308 Y117.659 E1.1243
G1 X143.323 Y117.638 E1.1246
G1 X144.135 Y116.664 E1.1425
G1 X144.153 Y116.646 E1.1429
G1 X145.429 Y115.636 E1.1658
G1 X145.452 Y115.621 E1.1662
G1 X146.694 Y115.028 E1.1856
G1 X146.720 Y115.019 E1.1860
G1 X147.955 Y114.740 E1.2039
G1 X147.969 Y114.738 E1.2041
G1 X148.646 Y114.662 E1.2137
G1 X148.660 Y114.661 E1.2139
G1 X152.555 Y114.661 E1.2688
G1 X152.646 Y114.699 E1.2702
G1 X156.231 Y118.284 E1.3418
G1 X156.270 Y118.376 E1.3432
G1 X156.270 Y163.035 E1.9732
G1 X156.231 Y163.127 E1.9746
G1 X152.646 Y166.712 E2.0461
G1 X152.555 Y166.750 E2.0475
G1 X127.445 Y166.750 E2.4018
G1 X127.354 Y166.712 E2.4032
G1 X123.769 Y163.127 E2.4747
G1 X123.730 Y163.035 E2.4761
G1 X123.730 Y118.376 E3.1062
G1 X123.769 Y118.284 E3.1076
G92 E0
G1 E-1.5000 F1800
; inner perimeter
G1 X131.086 Y151.583 F4800
G1 E0.0000 F1800
G92 E0
G1 X131.333 Y152.131 E0.0085 F1350
G1 X131.610 Y152.598 E0.0161
G1 X131.870 Y152.940 E0.0222
G1 X132.162 Y153.255 E0.0283
G1 X132.580 Y153.612 E0.0360
G1 X132.924 Y153.842 E0.0419
G1 X133.283 Y154.033 E0.0476
G1 X133.661 Y154.189 E0.0534
G1 X134.015 Y154.296 E0.0586
G1 X134.402 Y154.374 E0.0641
G1 X134.799 Y154.414 E0.0698
G1 X145.210 Y154.411 E0.2167
G1 X145.719 Y154.355 E0.2239
G1 X146.302 Y154.202 E0.2324
G1 X146.682 Y154.050 E0.2382
G1 X147.036 Y153.865 E0.2438
G1 X147.261 Y153.723 E0.2475
G1 X147.582 Y153.484 E0.2532
G1 X147.895 Y153.199 E0.2592
G1 X148.312 Y152.709 E0.2682
G1 X148.551 Y152.343 E0.2744
G1 X148.754 Y151.953 E0.2806
G1 X148.900 Y151.565 E0.2865
G1 X149.270 Y151.632 E0.2918
G1 X149.270 Y159.750 E0.4063
G1 X130.730 Y159.750 E0.6678
G1 X130.730 Y151.659 E0.7820
G1 X131.086 Y151.583 E0.7871
; outer perimeter
G1 X131.615 Y151.540 F4800
G92 E0
G1 X131.777 Y151.900 E0.0056 F900
G1 X132.025 Y152.318 E0.0124
G1 X132.253 Y152.618 E0.0177
G1 X132.509 Y152.894 E0.0230
G1 X132.882 Y153.212 E0.0300
G1 X133.181 Y153.412 E0.0350
G1 X133.496 Y153.580 E0.0401
G1 X133.829 Y153.717 E0.0452
G1 X134.138 Y153.811 E0.0497
G1 X134.476 Y153.879 E0.0546
G1 X134.824 Y153.914 E0.0595
G1 X145.182 Y153.911 E0.2056
G1 X145.628 Y153.862 E0.2120
G1 X146.145 Y153.726 E0.2195
G1 X146.473 Y153.595 E0.2245
G1 X146.787 Y153.431 E0.2295
G1 X146.978 Y153.310 E0.2327
G1 X147.263 Y153.098 E0.2377
G1 X147.534 Y152.851 E0.2429
G1 X147.911 Y152.409 E0.2511
G1 X148.119 Y152.090 E0.2564
G1 X148.297 Y151.748 E0.2619
G1 X148.490 Y151.236 E0.2696
G1 X148.586 Y150.848 E0.2752
G1 X148.643 Y150.450 E0.2809
G1 X148.661 Y150.047 E0.2866
G1 X148.660 Y121.527 E0.6889
G1 X148.693 Y121.378 E0.6911
G1 X148.736 Y121.296 E0.6924
G1 X148.756 Y121.273 E0.6928
G1 X148.869 Y121.197 E0.6948
G1 X149.028 Y121.161 E0.6971
G1 X149.770 Y121.161 E0.7075
G1 X149.770 Y160.250 E1.2590
G1 X130.230 Y160.250 E1.5346
G1 X130.230 Y121.161 E2.0861
G1 X130.972 Y121.161 E2.0966
G1 X131.131 Y121.197 E2.0989
G1 X131.244 Y121.273 E2.1008
G1 X131.264 Y121.296 E2.1012
G1 X131.307 Y121.378 E2.1025
G1 X131.340 Y121.527 E2.1047
G1 X131.339 Y150.044 E2.5070
G1 X131.344 Y150.277 E2.5103
G1 X131.385 Y150.680 E2.5160
G1 X131.489 Y151.165 E2.5230
G1 X131.615 Y151.540 E2.5286
; gap fill
G1 X130.716 Y151.222 F4800
G92 E0
G1 X130.660 Y151.167 E0.0011 F1440
G1 X130.660 Y150.459 E0.0111
G1 X130.962 Y150.761 E0.0171
G1 X130.959 Y150.747 E0.0173
G1 X130.914 Y150.303 E0.0236
G1 X130.909 Y150.049 E0.0272
G1 X130.909 Y150.000 E0.0279
G1 X130.660 Y149.752 E0.0328
G1 X130.660 Y149.045 E0.0428
G1 X130.909 Y149.293 E0.0478
G1 X130.909 Y148.586 E0.0577
G1 X130.660 Y148.338 E0.0627
G1 X130.660 Y147.631 E0.0727
G1 X130.909 Y147.879 E0.0776
G1 X130.909 Y147.172 E0.0876
G1 X130.660 Y146.924 E0.0926
G1 X130.660 Y146.217 E0.1025
G1 X130.909 Y146.465 E0.1075
G1 X130.909 Y145.758 E0.1175
G1 X130.660 Y145.510 E0.1224
G1 X130.660 Y144.803 E0.1324
G1 X130.909 Y145.051 E0.1373
G1 X130.909 Y144.344 E0.1473
G1 X130.660 Y144.095 E0.1523
G1 X130.660 Y143.388 E0.1623
G1 X130.909 Y143.637 E0.1672
G1 X130.909 Y142.930 E0.1772
G1 X130.660 Y142.681 E0.1822
G1 X130.660 Y141.974 E0.1921
G1 X130.909 Y142.223 E0.1971
G1 X130.909 Y141.516 E0.2071
G1 X130.660 Y141.267 E0.2120
G1 X130.660 Y140.560 E0.2220
G1 X130.909 Y140.809 E0.2270
G1 X130.909 Y140.102 E0.2369
G1 X130.660 Y139.853 E0.2419
G1 X130.660 Y139.146 E0.2519
G1 X130.909 Y139.395 E0.2568
G1 X130.909 Y138.687 E0.2668
G1 X130.660 Y138.439 E0.2718
G1 X130.660 Y137.731 E0.2818
G1 X130.909 Y137.980 E0.2867
G1 X130.909 Y137.273 E0.2967
G1 X130.660 Y137.024 E0.3017
G1 X130.660 Y136.317 E0.3116
